X: 14851
T: Garrett Barry's
R: reel
M: 4/4
K: Gmajor
~G3B d2Bd|edBe dBAB|~G3B d3B|AEGE DGBA|
~G3B d2Bd|edBA GABd|edcB cdef|gedB AGAB:|
~g3b a2ge|dGBA GABd|~g3a gedg|eaag a2ga|
b2gb abge|dGBA GABd|edcB cdef|gedB AGAB:|

